icons/repo-pull-24.svg

<svg width="24" height="24" viewBox="0 0 24 24" fill="none" xmlns="http://www.w3.org/2000/svg">
<path d="M1.875 2.875C1.875 1.49429 2.99429 0.375 4.375 0.375H18.375C18.7892 0.375 19.125 0.710786 19.125 1.125V10.25C19.125 10.6642 18.7892 11 18.375 11C17.9608 11 17.625 10.6642 17.625 10.25V1.875H4.375C3.82271 1.875 3.375 2.32272 3.375 2.875V14.083C3.68123 13.9492 4.01945 13.875 4.375 13.875H10.3125C10.7267 13.875 11.0625 14.2108 11.0625 14.625C11.0625 15.0392 10.7267 15.375 10.3125 15.375H4.375C3.82272 15.375 3.375 15.8227 3.375 16.375V18.125C3.375 18.6773 3.82272 19.125 4.375 19.125H10.375C10.7892 19.125 11.125 19.4608 11.125 19.875C11.125 20.2892 10.7892 20.625 10.375 20.625H4.375C2.99429 20.625 1.875 19.5057 1.875 18.125V2.875Z" fill="black"/>
<path d="M18.6429 20.4838C18.35 20.7767 18.35 21.2516 18.6429 21.5445C18.9358 21.8374 19.4107 21.8374 19.7036 21.5445L23.4606 17.7874C23.7535 17.4945 23.7535 17.0196 23.4606 16.7267L19.7036 12.9697C19.4107 12.6768 18.9358 12.6768 18.6429 12.9697C18.35 13.2626 18.35 13.7374 18.6429 14.0303L21.1194 16.5068H13C12.5858 16.5068 12.25 16.8426 12.25 17.2568C12.25 17.671 12.5858 18.0068 13 18.0068H21.1199L18.6429 20.4838Z" fill="black"/>
</svg>

<svg xmlns="http://www.w3.org/2000/svg" width="24" height="24" viewBox="0 0 24 24"><path d="M1.875 2.875a2.5 2.5 0 0 1 2.5-2.5h14a.75.75 0 0 1 .75.75v9.125a.75.75 0 0 1-1.5 0V1.875H4.375a1 1 0 0 0-1 1v11.208a2.486 2.486 0 0 1 1-.208h5.937a.75.75 0 1 1 0 1.5H4.375a1 1 0 0 0-1 1v1.75a1 1 0 0 0 1 1h6a.75.75 0 0 1 0 1.5h-6a2.5 2.5 0 0 1-2.5-2.5V2.875Z"/><path d="M18.643 20.484a.749.749 0 1 0 1.061 1.06l3.757-3.757a.75.75 0 0 0 0-1.06l-3.757-3.757a.75.75 0 0 0-1.061 1.06l2.476 2.477H13a.75.75 0 0 0 0 1.5h8.12l-2.477 2.477Z"/></svg>
